dist/svg/wmi.svg

<svg width="16" height="16" viewBox="0 0 16 16" fill="rgb(34, 34, 34)" xmlns="http://www.w3.org/2000/svg"><title>WMI</title><path d="M15 4H11V0L15 4ZM10 5H15V15.417C14.994 15.74 14.731 16 14.406 16C14.404 16 14.401 16 14.399 16H1.59902C1.59702 16 1.59502 16 1.59302 16C1.26902 16 1.00502 15.74 0.999023 15.417V0.583C1.00502 0.26 1.26802 0 1.59202 0C1.59402 0 1.59702 0 1.59902 0H9.99902L10 5ZM12 10L10.6 12.8L11.5 13.2L13.1 10L11.5 6.8L10.6 7.2L12 10ZM5.50002 12.8L4.10002 10L5.40002 7.2L4.50002 6.8L2.90002 10L4.60002 13.2L5.50002 12.8ZM9.50002 6.1L8.50002 5.9L6.50002 13.9L7.50002 14.1L9.50002 6.1Z" fill="rgb(34, 34, 34)" fill-opacity="1.00"/></svg>

<!-- Generated by Trend Micro Style Portal -->
<svg version="1.1" xmlns="http://www.w3.org/2000/svg" width="16" height="16" viewBox="0 0 16 16">
  <title>wmi</title>
  <path fill="rgb(34,34,34)" d="M15 4h-4v-4zM10 5h5v10.417c-0.006 0.323-0.269 0.583-0.594 0.583-0.002 0-0.005-0-0.007-0h-12.8c-0.002 0-0.004 0-0.006 0-0.324 0-0.588-0.26-0.594-0.583v-14.834c0.006-0.323 0.269-0.583 0.593-0.583 0.002 0 0.005 0 0.007 0h8.4zM12 10l-1.4 2.8 0.9 0.4 1.6-3.2-1.6-3.2-0.9 0.4zM5.5 12.8l-1.4-2.8 1.3-2.8-0.9-0.4-1.6 3.2 1.7 3.2zM9.5 6.1l-1-0.2-2 8 1 0.2z"></path>
</svg>
